!!!!SEGMENT: pl-kk--kk-i-3--006-002_anonim--officium-primum-de-annuntiatione-de-bmv-kirie.krn
!!!cenid: 15xx:579
!!!COM: Anonim
!!!COM-rismid: pe30004985
!!!CDT:
!!!CNT:
!!!OPR: Officium Primum de Annuntiatione de BMV
!!!OTL: /Kirie
!!!OMV: 002
!!!PDT:
!!!AGN:
!!!SMS-siglum: PL-Kk
!!!SMS-shelfmark: Kk.I.3
!!!SMS-shelfwork: 006-002 M
!!!SMS-variant:
!!!SMS-altvar:
!!!NIFC-rismid: 1001145499
!!!URL-scan: http://repozytorium.nifc.pl/skany/pl-kk-nut--i-3
!!!ONB-nifc: UWAGA: Discantus (s. 17v-19r, skan 0020-0021), Tenor (s. 16v, skan 0189), Bassus (s. 15r-v, skan 0318-0319). Następna część: Gloria patri
!!!AIN: 1 alto 1 bass 1 tenor
!!!key:
**kern	**text	**kern	**text	**kern	**text
*part3	*part3	*part2	*part2	*part1	*part1
*staff3	*staff3	*staff2	*staff2	*staff1	*staff1
*I"Bassus	*	*I"Tenor	*	*I"Discantus	*
*I'B	*	*I'T	*	*I'A	*
*Ibass	*	*Itenor	*	*Ialto	*
*ICvox	*	*ICvox	*	*ICvox	*
*clefF4	*	*clefF3	*	*clefC3	*
*k[b-]	*	*k[b-]	*	*k[b-]	*
*B-:	*	*B-:	*	*B-:	*
*M2/1	*	*M2/1	*	*M2/1	*
*met(C)	*	*met(C)	*	*met(C)	*
=1-	=1-	=1-	=1-	=1-	=1-
1F	Ky-	1F	Ky-	1f	Ky-
2F/	-ri-	1D	-ri-	2f\	-ri-
2.D/	-e	.	.	2.f\	-e
=2-	=2-	=2-	=2-	=2-	=2-
.	.	1F	-e	.	.
4C/	.	.	.	4e\	.
4BB-/	.	.	.	4d/	.
4AA/	.	.	.	4c/	.
*	*	*lig	*	*	*
1GG	.	1G	[e]-	1B-	.
=3-	=3-	=3-	=3-	=3-	=3-
2FF/	.	1A	.	2A/	.
1F	[e]-	.	.	2F/	.
*	*	*Xlig	*	*	*
.	.	1B-	.	1G	.
2E/	.	.	.	.	.
=4-	=4-	=4-	=4-	=4-	=4-
2F/	.	1A	.	2F/	.
2FF/	.	.	.	1f	[e]-
1C	.	1G	.	.	.
.	.	.	.	2e/	.
=5-	=5-	=5-	=5-	=5-	=5-
2D/	.	1F	.	2f\	.
2.F/	.	.	.	2.d/	.
.	.	1D	-le-	.	.
*custos:D	*	*	*	*	*
4E/	.	.	.	4c/	.
!LO:LB:g=original	!	!	!	!	!
2D/	.	.	.	2B-/	.
=6-	=6-	=6-	=6-	=6-	=6-
1C	-ley-	1E	-ÿ-	2A/	.
*	*	*	*	*custos:c	*
.	.	.	.	2G/	.
*	*	*lig	*	*	*
!	!	!	!	!LO:LB:g=original	!
[1FF;l	-son	1F	-ſon	1c	-ley-
=7-	=7-	=7-	=7-	=7-	=7-
0FF]	.	0Fl	.	0c;l	-son
*	*	*Xlig	*	*	*
=8-	=8-	=8-	=8-	=8-	=8-
1F	Cri-	1F	Chriſ-	2.c/	Chri-
.	.	.	.	4B-/	.
2F\	.	1c	.	2A/	.
2.A\	.	.	.	2.F/	ste
=9-	=9-	=9-	=9-	=9-	=9-
.	.	1c	-te	.	.
4G\	.	.	.	4G/	.
2F\	.	.	.	2A/	.
1G	-ste	1B-	.	2G/	.
.	.	.	.	1g\	[e]-
=10-	=10-	=10-	=10-	=10-	=10-
1D	.	1A	e-	.	.
.	.	.	.	4f\	.
.	.	.	.	4e\	.
2r	.	1B-	.	1d	.
2G\	[e]-	.	.	.	.
=11-	=11-	=11-	=11-	=11-	=11-
*lig	*	*	*	*	*
1C	.	1c	.	2e\	.
.	.	.	.	1c	.
*	*	*custos:c	*	*	*
1G	.	1d	.	.	.
.	.	.	.	2B-/	.
*Xlig	*	*	*	*	*
!	!	!LO:LB:g=original	!	!	!
=12-	=12-	=12-	=12-	=12-	=12-
*	*	*lig	*	*	*
2C/	.	1c	.	2c/	.
1F	.	.	.	2.A/	.
.	.	1A	.	.	.
.	.	.	.	4B-/	.
*	*	*	*	*custos:B	*
2F\	.	.	.	2c/	.
*	*	*Xlig	*	*	*
!	!	!	!	!LO:LB:g=original	!
=13-	=13-	=13-	=13-	=13-	=13-
*custos:D	*	*	*	*	*
1G	.	1B-	.	2B-/	.
.	.	.	.	1G	.
!LO:LB:g=original	!	!	!	!	!
1D	.	1A	.	.	.
.	.	.	.	2F/	.
=14-	=14-	=14-	=14-	=14-	=14-
2GG/	.	1G	.	1G	.
2C/	.	.	.	.	.
2AA/	.	1F	.	1A	.
2.D/	-ley-	.	.	.	.
=15-	=15-	=15-	=15-	=15-	=15-
.	.	1D	le-	2B-/	.
4C/	.	.	.	.	.
4BB-/	.	.	.	2.d/	-le-
4AA/	.	.	.	.	.
1GG	.	1E	-i-	.	.
.	.	.	.	4c/	.
.	.	.	.	2B-/	-y-
=16-	=16-	=16-	=16-	=16-	=16-
*	*	*lig	*	*	*
!	!	!	!	!	!
0FF;l	-son	1F	-ſon	0A;l	-son
.	.	1Fl	.	.	.
*	*	*Xlig	*	*	*
*	*	*clefF2	*	*	*
=17-	=17-	=17-	=17-	=17-	=17-
1FF	Ki-	1F	Ky-	1A	Ki-
2FF/	-ri-	1c	.	2F/	-ri-
1F/	-e	.	.	2.A/	e
=18-	=18-	=18-	=18-	=18-	=18-
.	.	1c	-ri-	.	.
.	.	.	.	4B-/	.
2E/	.	.	.	2c/	.
*	*	*lig	*	*	*
2F\	.	1d	-e	2A/	.
2G\	.	.	.	2B-/	.
=19-	=19-	=19-	=19-	=19-	=19-
*	*	*	*	*custos:A	*
2A\	.	1c	.	2c/	.
!	!	!	!	!LO:LB:g=original	!
2.F\	.	.	.	1A	.
*	*	*Xlig	*	*	*
.	.	1f	[e]-	.	.
*custos:D	*	*	*	*	*
4E/	.	.	.	.	.
!LO:LB:g=original	!	!	!	!	!
2D/	.	.	.	1d\	.
=20-	=20-	=20-	=20-	=20-	=20-
1A	.	1e	.	.	.
.	.	.	.	2c/	.
2D/	.	1d	.	2d/	.
1G/	.	.	.	4c/	.
.	.	.	.	4B-/	.
=21-	=21-	=21-	=21-	=21-	=21-
.	.	1c	.	1A	.
2F\	.	.	.	.	.
1G	.	1B-	.	2G/	.
.	.	.	.	2g\	[e]-
=22-	=22-	=22-	=22-	=22-	=22-
1C	.	1c	.	2e\	.
.	.	.	.	1c	.
2r	.	1d	.	.	.
2GG/	[e]-	.	.	2B-/	.
=23-	=23-	=23-	=23-	=23-	=23-
*	*	*lig	*	*	*
!	!	!	!	!	!
2.AA/	.	1c	.	2.c/	.
4BB-/	.	.	.	4d/	.
2C/	.	1A	.	2e\	.
2D/	.	.	.	2f\	.
*	*	*Xlig	*	*	*
=24-	=24-	=24-	=24-	=24-	=24-
1GG	.	1B-	.	2g\	.
.	.	.	.	1G	.
1D	.	1A	.	.	.
.	.	.	.	2F/	.
=25-	=25-	=25-	=25-	=25-	=25-
*	*	*custos:F	*	*	*
2E-X/	.	1G	.	2G/	.
2C/	.	.	.	2c/	.
*custos:BB	*	*	*	*custos:d	*
!	!	!LO:LB:g=original	!	!	!
2D/	.	1F	.	2A/	.
!LO:LB:g=original	!	!	!	!LO:PB:g=original	!
2.BB-/	.	.	.	2.d/	.
=26-	=26-	=26-	=26-	=26-	=26-
.	.	1D	-le-	.	.
4C/	.	.	.	4c/	.
2D/	.	.	.	4B-/	.
.	.	.	.	4A/	.
1C	-ley-	1E	-ÿ-	0G	-ley-
=27-	=27-	=27-	=27-	=27-	=27-
*	*	*lig	*	*	*
[0FF;l	-son	1F	-son	.	.
.	.	1F	.	[1A;l	son
=28-	=28-	=28-	=28-	=28-	=28-
0FF]	.	0Fl	.	0A]	.
*	*	*Xlig	*	*	*
=29-	=29-	=29-	=29-	=29-	=29-
!	!	!LO:TX:t=P:JI:problem=prawdopodobnie fragment początkowy trzeciego kyrie należy o powtórzyć	!	!	!
1FF	Ki-	1Fyy	.	1A	Ki-
2FF/	-ri-	0cyy	.	2F/	-ri-
*	*	*	*	*	*
1F\	-e	.	.	2.A/	-e
*	*	*	*	*	*
=30-	=30-	=30-	=30-	=30-	=30-
.	.	.	.	.	.
.	.	.	.	4B-/	.
2Eny/	.	.	.	2c/	.
*	*	*lig	*	*	*
2D/	.	0dyy	.	2A/	.
2G\	.	.	.	2B-/	.
=31-	=31-	=31-	=31-	=31-	=31-
2A\	.	.	.	2c/	.
2.F/	.	.	.	1A	.
*	*	*Xlig	*	*	*
.	.	0fyy	.	.	.
4E/	.	.	.	.	.
2D/	.	.	.	1d\	.
=32-	=32-	=32-	=32-	=32-	=32-
1A	.	.	.	.	.
.	.	.	.	2c/	.
2D/	.	0dyy	.	2d/	.
*custos:F	*	*	*	*	*
1G\	.	.	.	4c/	.
*	*	*	*	*custos:A	*
.	.	.	.	4B-/	.
!LO:PB:g=original	!	!	!	!LO:LB:g=original	!
=33-	=33-	=33-	=33-	=33-	=33-
.	.	.	.	1A	.
2F/	.	.	.	.	.
1G	.	0B-yy	.	2G/	.
.	.	.	.	2g\	[e]-
=34-	=34-	=34-	=34-	=34-	=34-
1C	.	.	.	2e\	.
.	.	.	.	1c	.
2r	.	0dyy	.	.	.
2GG/	[e-	.	.	2B-/	.
=35-	=35-	=35-	=35-	=35-	=35-
2.AA/	.	.	.	2.c/	.
4BB-/	.	.	.	4d/	.
2C/	.	1Ayy	.	2e\	.
2D/	.	.	.	2f\	.
=36-	=36-	=36-	=36-	=36-	=36-
*	*	*lig	*	*	*
2E/	.	1c	.	2g\	.
2.F/	.	.	.	2.c/	.
.	.	1c	.	.	.
4E/	.	.	.	4d/	.
2C/	.	.	.	2e\	.
*	*	*Xlig	*	*	*
=37-	=37-	=37-	=37-	=37-	=37-
1G	.	1B-	.	1d	.
1C	.	1c	.	2e\	.
.	.	.	.	1c\	.
=38-	=38-	=38-	=38-	=38-	=38-
2r	.	1d	.	.	.
2GG/	.	.	.	2B-/	.
2.AA/	.	1c	.	2.c/	.
4BB-/	.	.	.	4d/	.
=39-	=39-	=39-	=39-	=39-	=39-
*	*	*	*	*custos:f	*
2C/	.	1A	.	2e/	.
!	!	!	!	!LO:LB:g=original	!
2D/	.	.	.	2f\	.
*custos:D	*	*	*	*	*
1GG	.	1B-	.	2d/	.
.	.	.	.	1g\	.
!LO:LB:g=original	!	!	!	!	!
=40-	=40-	=40-	=40-	=40-	=40-
2.D/	.	1A	.	.	.
.	.	.	.	2f\	.
4C/	.	.	.	.	.
2BB-/	.	1G	.	2g\	.
2C/	.	.	.	2e\	.
=41-	=41-	=41-	=41-	=41-	=41-
*	*	*lig	*	*	*
2AA/	.	1F	.	2f\	.
2BB-/	.	.	.	2.d/	.
2GG/	.	1D	.	.	.
.	.	.	.	4e\	.
2FF/	.	.	.	2f\	.
*	*	*Xlig	*	*	*
=42-	=42-	=42-	=42-	=42-	=42-
1GG	-ley-	1E	.	1B-	-ley-
[1FF;l	-son]	1F	.	[1f;l	-son
=43-	=43-	=43-	=43-	=43-	=43-
0FF]	.	1F	.	0f]	.
.	.	1Fl	.	.	.
==	==	==	==	==	==
*-	*-	*-	*-	*-	*-
!!!system-decoration: *
!!!ENC: Marta Opryszak
!!!END: 2021-12-27
!!!RDF**kern: l = terminal long
!!!EED: Andrzej Borzym
!!!EST: 2021-12-30
